SVG_Azure_All/Dashboard.svg

<?xml version="1.0" encoding="UTF-8" standalone="no"?>
<!-- Generated by Microsoft Visio, SVG Export Dashboard.svg Page-1 -->

<svg
   xmlns:dc="http://purl.org/dc/elements/1.1/"
   xmlns:cc="http://creativecommons.org/ns#"
   xmlns:rdf="http://www.w3.org/1999/02/22-rdf-syntax-ns#"
   xmlns:svg="http://www.w3.org/2000/svg"
   xmlns="http://www.w3.org/2000/svg"
   xmlns:sodipodi="http://sodipodi.sourceforge.net/DTD/sodipodi-0.dtd"
   xmlns:inkscape="http://www.inkscape.org/namespaces/inkscape"
   width="0.7873624in"
   height="0.55118066in"
   viewBox="0 0 56.690001 39.684875"
   xml:space="preserve"
   class="st6"
   version="1.1"
   id="svg75"
   sodipodi:docname="Dashboard.svg"
   style="font-size:12px;overflow:visible;color-interpolation-filters:sRGB;fill:none;fill-rule:evenodd;stroke-linecap:square;stroke-miterlimit:3"
   inkscape:version="0.92.5 (2060ec1f9f, 2020-04-08)"><metadata
   id="metadata79"><rdf:RDF><cc:Work
       rdf:about=""><dc:format>image/svg+xml</dc:format><dc:type
         rdf:resource="http://purl.org/dc/dcmitype/StillImage" /></cc:Work></rdf:RDF></metadata><sodipodi:namedview
   pagecolor="#ffffff"
   bordercolor="#666666"
   borderopacity="1"
   objecttolerance="10"
   gridtolerance="10"
   guidetolerance="10"
   inkscape:pageopacity="0"
   inkscape:pageshadow="2"
   inkscape:window-width="640"
   inkscape:window-height="480"
   id="namedview77"
   showgrid="false"
   inkscape:zoom="1.6434028"
   inkscape:cx="37.795396"
   inkscape:cy="26.446707"
   inkscape:window-x="0"
   inkscape:window-y="0"
   inkscape:window-maximized="0"
   inkscape:current-layer="svg75" />
	<style
   type="text/css"
   id="style2">
	<![CDATA[
		.st1 {fill:url(#grad0-6);stroke:none;stroke-linecap:butt;stroke-width:34}
		.st2 {fill:#f9f9f9;fill-opacity:0.9;stroke:none;stroke-linecap:butt;stroke-width:36.0434}
		.st3 {fill:#ffffff;fill-opacity:0.6;stroke:none;stroke-linecap:butt;stroke-width:36.0434}
		.st4 {fill:#f2f2f2;fill-opacity:0.9;stroke:none;stroke-linecap:butt;stroke-width:36.0434}
		.st5 {fill:#ffffff;stroke:none;stroke-linecap:butt;stroke-width:36.0434}
		.st6 {fill:none;fill-rule:evenodd;font-size:12px;overflow:visible;stroke-linecap:square;stroke-miterlimit:3}
	]]>
	</style>

	<defs
   id="Patterns_And_Gradients">
		<linearGradient
   id="grad0-6"
   x1="0"
   y1="81.294183"
   x2="47.431418"
   y2="81.294183"
   gradientTransform="scale(1.1951994,0.8366805)"
   gradientUnits="userSpaceOnUse">
			<stop
   offset="0.09"
   stop-color="#6cc6b9"
   stop-opacity="1"
   id="stop4" />
			<stop
   offset="0.465"
   stop-color="#6ac4b7"
   stop-opacity="1"
   id="stop6" />
			<stop
   offset="0.635"
   stop-color="#62bdb0"
   stop-opacity="1"
   id="stop8" />
			<stop
   offset="0.77"
   stop-color="#56b1a4"
   stop-opacity="1"
   id="stop10" />
			<stop
   offset="0.88"
   stop-color="#439f93"
   stop-opacity="1"
   id="stop12" />
			<stop
   offset="0.975"
   stop-color="#2c897d"
   stop-opacity="1"
   id="stop14" />
			<stop
   offset="1"
   stop-color="#258277"
   stop-opacity="1"
   id="stop16" />
		</linearGradient>
	</defs>
	<g
   id="g73"
   transform="translate(-34,-34.00165)">
		<title
   id="title20">Page-1</title>
		<g
   id="group5947-1"
   transform="translate(34,-34.0157)">
			<title
   id="title22">Dashboard</title>
			<g
   id="group5948-2">
				<title
   id="title24">g10</title>
				<g
   id="shape5949-3">
					<title
   id="title26">path2</title>
					<path
   d="m 1.73,68.02 h 53.22 a 1.64724,1.62786 0 0 1 1.74,1.53 v 36.62 a 1.64724,1.62786 0 0 1 -1.72,1.53 H 1.73 A 1.64724,1.62786 0 0 1 0,106.17 V 69.55 a 1.64724,1.62786 0 0 1 1.73,-1.53 z"
   class="st1"
   id="path28"
   inkscape:connector-curvature="0"
   style="fill:url(#grad0-6);stroke:none;stroke-width:34;stroke-linecap:butt" />
				</g>
				<g
   id="shape5950-7"
   transform="translate(39.4507,-5.57031)">
					<title
   id="title31">rect4</title>
					<path
   d="m 0,107.22 a 0.490827,0.485053 -180 0 0 0.490816,0.48504 L 4.62,107.7 a 0.490827,0.485053 -180 0 0 0.490816,-0.48504 L 5.12,77.34 A 0.490827,0.485053 -180 0 0 4.629184,76.854958 L 0.49,76.86 a 0.490827,0.485053 -180 0 0 -0.490816,0.485042 z"
   class="st2"
   id="path33"
   inkscape:connector-curvature="0"
   style="fill:#f9f9f9;fill-opacity:0.9;stroke:none;stroke-width:36.04339981;stroke-linecap:butt" />
				</g>
				<g
   id="shape5951-9"
   transform="translate(3.28721,-5.53402)">
					<title
   id="title36">rect6</title>
					<path
   d="m 0,107.18 a 0.530895,0.524649 -180 0 0 0.530883,0.52464 L 28.09,107.7 a 0.530895,0.524649 -180 0 0 0.530883,-0.52464 L 28.62,101.84 a 0.530895,0.524649 -180 0 0 -0.530883,-0.52464 L 0.53,101.31 a 0.530895,0.524649 -180 0 0 -0.530883,0.52464 z"
   class="st3"
   id="path38"
   inkscape:connector-curvature="0"
   style="fill:#ffffff;fill-opacity:0.6;stroke:none;stroke-width:36.04339981;stroke-linecap:butt" />
				</g>
				<g
   id="shape5952-11"
   transform="translate(47.2937,-5.57031)">
					<title
   id="title41">rect8</title>
					<path
   d="m 0,107.33 a 0.377303,0.372864 -180 0 0 0.377294,0.37285 L 4.74,107.7 a 0.377303,0.372864 -180 0 0 0.377294,-0.37285 L 5.12,89.85 A 0.377303,0.372864 -180 0 0 4.742706,89.477145 L 0.38,89.48 a 0.377303,0.372864 -180 0 0 -0.377294,0.372855 z"
   class="st4"
   id="path43"
   inkscape:connector-curvature="0"
   style="fill:#f2f2f2;fill-opacity:0.9;stroke:none;stroke-width:36.04339981;stroke-linecap:butt" />
				</g>
				<g
   id="shape5953-13"
   transform="translate(5.9049,-18.2408)">
					<title
   id="title46">path10</title>
					<path
   d="M 22.39,91.39 15.28,103.9 7.75,96.33 0,106.26 l 1.82,1.41 6.15,-7.84 7.8,7.87 8.63,-15.16 z"
   class="st5"
   id="path48"
   inkscape:connector-curvature="0"
   style="fill:#ffffff;stroke:none;stroke-width:36.04339981;stroke-linecap:butt" />
				</g>
				<g
   id="shape5954-15"
   transform="translate(10.8231,-24.9687)">
					<title
   id="title51">ellipse12</title>
					<ellipse
   cx="2.92486"
   cy="104.796"
   rx="2.92486"
   ry="2.90695"
   class="st5"
   id="ellipse53"
   style="fill:#ffffff;stroke:none;stroke-width:36.04339981;stroke-linecap:butt" />
				</g>
				<g
   id="shape5955-17"
   transform="translate(18.7529,-17.7623)">
					<title
   id="title56">ellipse14</title>
					<ellipse
   cx="2.92486"
   cy="104.796"
   rx="2.92486"
   ry="2.90695"
   class="st5"
   id="ellipse58"
   style="fill:#ffffff;stroke:none;stroke-width:36.04339981;stroke-linecap:butt" />
				</g>
				<g
   id="shape5956-19"
   transform="translate(26.1152,-30.71)">
					<title
   id="title61">ellipse16</title>
					<ellipse
   cx="2.92486"
   cy="104.796"
   rx="2.92486"
   ry="2.90695"
   class="st5"
   id="ellipse63"
   style="fill:#ffffff;stroke:none;stroke-width:36.04339981;stroke-linecap:butt" />
				</g>
				<g
   id="shape5957-21"
   transform="translate(4.19205,-16.4953)">
					<title
   id="title66">ellipse18</title>
					<ellipse
   cx="2.92486"
   cy="104.796"
   rx="2.92486"
   ry="2.90695"
   class="st5"
   id="ellipse68"
   style="fill:#ffffff;stroke:none;stroke-width:36.04339981;stroke-linecap:butt" />
				</g>
			</g>
		</g>
	</g>
</svg>

<?xml version="1.0" encoding="UTF-8" standalone="no"?>
<!DOCTYPE svg PUBLIC "-//W3C//DTD SVG 1.1//EN" "http://www.w3.org/Graphics/SVG/1.1/DTD/svg11.dtd">
<!-- Generated by Microsoft Visio, SVG Export Dashboard.svg Page-1 -->
<svg xmlns="http://www.w3.org/2000/svg" xmlns:xlink="http://www.w3.org/1999/xlink" xmlns:ev="http://www.w3.org/2001/xml-events"
		width="1.73185in" height="1.49588in" viewBox="0 0 124.693 107.703" xml:space="preserve" color-interpolation-filters="sRGB"
		class="st6">
	<style type="text/css">
	<![CDATA[
		.st1 {fill:url(#grad0-6);stroke:none;stroke-linecap:butt;stroke-width:34}
		.st2 {fill:#f9f9f9;fill-opacity:0.9;stroke:none;stroke-linecap:butt;stroke-width:36.0434}
		.st3 {fill:#ffffff;fill-opacity:0.6;stroke:none;stroke-linecap:butt;stroke-width:36.0434}
		.st4 {fill:#f2f2f2;fill-opacity:0.9;stroke:none;stroke-linecap:butt;stroke-width:36.0434}
		.st5 {fill:#ffffff;stroke:none;stroke-linecap:butt;stroke-width:36.0434}
		.st6 {fill:none;fill-rule:evenodd;font-size:12px;overflow:visible;stroke-linecap:square;stroke-miterlimit:3}
	]]>
	</style>

	<defs id="Patterns_And_Gradients">
		<linearGradient id="grad0-6" x1="0" y1="0" x2="1" y2="0" gradientTransform="rotate(90 0.5 0.5)">
			<stop offset="0.09" stop-color="#6cc6b9" stop-opacity="1"/>
			<stop offset="0.465" stop-color="#6ac4b7" stop-opacity="1"/>
			<stop offset="0.635" stop-color="#62bdb0" stop-opacity="1"/>
			<stop offset="0.77" stop-color="#56b1a4" stop-opacity="1"/>
			<stop offset="0.88" stop-color="#439f93" stop-opacity="1"/>
			<stop offset="0.975" stop-color="#2c897d" stop-opacity="1"/>
			<stop offset="1" stop-color="#258277" stop-opacity="1"/>
		</linearGradient>
	</defs>
	<g>
		<title>Page-1</title>
		<g id="group5828-1" transform="translate(34,-34.0157)">
			<title>Dashboard</title>
			<g id="group5829-2">
				<title>g10</title>
				<g id="shape5830-3">
					<title>path2</title>
					<path d="M1.73 68.02 L54.95 68.02 A1.64724 1.62786 0 0 1 56.69 69.55 L56.69 106.17 A1.64724 1.62786 0 0 1 54.97
								 107.7 L1.73 107.7 A1.64724 1.62786 0 0 1 -0 106.17 L0 69.55 A1.64724 1.62786 0 0 1 1.73 68.02 Z"
							class="st1"/>
				</g>
				<g id="shape5831-7" transform="translate(39.4507,-5.57031)">
					<title>rect4</title>
					<path d="M0 107.22 a0.490827 0.485053 -180 0 0 0.490816 0.485042 L4.62 107.7 a0.490827 0.485053 -180 0 0 0.490816
								 -0.485042 L5.12 77.34 a0.490827 0.485053 -180 0 0 -0.490816 -0.485042 L0.49 76.86 a0.490827 0.485053
								 -180 0 0 -0.490816 0.485042 L0 107.22 Z" class="st2"/>
				</g>
				<g id="shape5832-9" transform="translate(3.28721,-5.53402)">
					<title>rect6</title>
					<path d="M0 107.18 a0.530895 0.524649 -180 0 0 0.530883 0.524637 L28.09 107.7 a0.530895 0.524649 -180 0 0 0.530883
								 -0.524637 L28.62 101.84 a0.530895 0.524649 -180 0 0 -0.530883 -0.524637 L0.53 101.31 a0.530895 0.524649
								 -180 0 0 -0.530883 0.524637 L0 107.18 Z" class="st3"/>
				</g>
				<g id="shape5833-11" transform="translate(47.2937,-5.57031)">
					<title>rect8</title>
					<path d="M0 107.33 a0.377303 0.372864 -180 0 0 0.377294 0.372855 L4.74 107.7 a0.377303 0.372864 -180 0 0 0.377294
								 -0.372855 L5.12 89.85 a0.377303 0.372864 -180 0 0 -0.377294 -0.372855 L0.38 89.48 a0.377303 0.372864
								 -180 0 0 -0.377294 0.372855 L0 107.33 Z" class="st4"/>
				</g>
				<g id="shape5834-13" transform="translate(5.9049,-18.2408)">
					<title>path10</title>
					<path d="M22.39 91.39 L15.28 103.9 L7.75 96.33 L0 106.26 L1.82 107.67 L7.97 99.83 L15.77 107.7 L24.4 92.54 L22.39
								 91.39 Z" class="st5"/>
				</g>
				<g id="shape5835-15" transform="translate(10.8231,-24.9687)">
					<title>ellipse12</title>
					<ellipse cx="2.92486" cy="104.796" rx="2.92486" ry="2.90695" class="st5"/>
				</g>
				<g id="shape5836-17" transform="translate(18.7529,-17.7623)">
					<title>ellipse14</title>
					<ellipse cx="2.92486" cy="104.796" rx="2.92486" ry="2.90695" class="st5"/>
				</g>
				<g id="shape5837-19" transform="translate(26.1152,-30.71)">
					<title>ellipse16</title>
					<ellipse cx="2.92486" cy="104.796" rx="2.92486" ry="2.90695" class="st5"/>
				</g>
				<g id="shape5838-21" transform="translate(4.19205,-16.4953)">
					<title>ellipse18</title>
					<ellipse cx="2.92486" cy="104.796" rx="2.92486" ry="2.90695" class="st5"/>
				</g>
			</g>
		</g>
	</g>
</svg>
